X:36
T:Gigue du D\'emon
M:4/4
L:1/8
K:D
F2Bc dcB2 | F2Bc def2 | F2Bc dcB2 | fgfe dcdd |
F2Bc dcB2 | F2Bc def2 | F2Bc dcB2 | fgfe dcB2 ::
fgaf bfa2 | ABcA BcBA | fgaf bfa2 | ABcA Bcde |
fgaf bfa2 | ABcA BcBA | fgaf bfa2 | ABcA fed2 :|

